X: 264
T:Rory O'More
% Nottingham Music Database
S:Trad, arr Phil Rowe
M:6/8
K:A
"A"eAA cAA|"A"eAA "D"f3|"A"edc cBA|"E"G2B Bcd|
"A"eAA cAA|"A"ece "D"fed|"E"cee efg|"A"aec A3::
"F#m"agf f2c|"Bm"dcB "F#m"A2G|"F#m"FGA ABc|"E"cfe efg|
"F#m"agf f2c|"Bm"dcB "F#m"A2G|"F#m"FGA ABc|"E"cfe e3:|<end>
<start>
